assets/img/icons/duotone-icons/Communication/Sending mail.svg

<?xml version="1.0" encoding="UTF-8"?>
<svg width="24px" height="24px" viewBox="0 0 24 24" version="1.1" xmlns="http://www.w3.org/2000/svg" xmlns:xlink="http://www.w3.org/1999/xlink">
    <!-- Generator: Sketch 52.2 (67145) - http://www.bohemiancoding.com/sketch -->
    <title>Stockholm-icons / Communication / Sending mail</title>
    <desc>Created with Sketch.</desc>
    <g id="Stockholm-icons-/-Communication-/-Sending-mail" stroke="none" stroke-width="1" fill="none" fill-rule="evenodd">
        <rect id="bound" x="0" y="0" width="24" height="24"></rect>
        <path d="M4,16 L5,16 C5.55228475,16 6,16.4477153 6,17 C6,17.5522847 5.55228475,18 5,18 L4,18 C3.44771525,18 3,17.5522847 3,17 C3,16.4477153 3.44771525,16 4,16 Z M1,11 L5,11 C5.55228475,11 6,11.4477153 6,12 C6,12.5522847 5.55228475,13 5,13 L1,13 C0.44771525,13 6.76353751e-17,12.5522847 0,12 C-6.76353751e-17,11.4477153 0.44771525,11 1,11 Z M3,6 L5,6 C5.55228475,6 6,6.44771525 6,7 C6,7.55228475 5.55228475,8 5,8 L3,8 C2.44771525,8 2,7.55228475 2,7 C2,6.44771525 2.44771525,6 3,6 Z" id="Combined-Shape" fill="#335EEA" opacity="0.3"></path>
        <path d="M10,6 L22,6 C23.1045695,6 24,6.8954305 24,8 L24,16 C24,17.1045695 23.1045695,18 22,18 L10,18 C8.8954305,18 8,17.1045695 8,16 L8,8 C8,6.8954305 8.8954305,6 10,6 Z M21.0849395,8.0718316 L16,10.7185839 L10.9150605,8.0718316 C10.6132433,7.91473331 10.2368262,8.02389331 10.0743092,8.31564728 C9.91179228,8.60740125 10.0247174,8.9712679 10.3265346,9.12836619 L15.705737,11.9282847 C15.8894428,12.0239051 16.1105572,12.0239051 16.294263,11.9282847 L21.6734654,9.12836619 C21.9752826,8.9712679 22.0882077,8.60740125 21.9256908,8.31564728 C21.7631738,8.02389331 21.3867567,7.91473331 21.0849395,8.0718316 Z" id="Combined-Shape" fill="#335EEA"></path>
    </g>
</svg>

<svg width="24" height="24" viewBox="0 0 24 24" xmlns="http://www.w3.org/2000/svg"><g fill="none" fill-rule="evenodd"><path d="M0 0h24v24H0z"/><path d="M4 16h1a1 1 0 010 2H4a1 1 0 010-2zm-3-5h4a1 1 0 010 2H1a1 1 0 010-2zm2-5h2a1 1 0 110 2H3a1 1 0 110-2z" fill="#335EEA" opacity=".3"/><path d="M10 6h12a2 2 0 012 2v8a2 2 0 01-2 2H10a2 2 0 01-2-2V8a2 2 0 012-2zm11.085 2.072L16 10.719l-5.085-2.647a.632.632 0 00-.84.244.59.59 0 00.252.812l5.379 2.8a.64.64 0 00.588 0l5.38-2.8a.59.59 0 00.252-.812.632.632 0 00-.841-.244z" fill="#335EEA"/></g></svg>
